!!! OTL: Berkowitz252
!!! Chapter: 1
!!! Section: II
!!! Page: 58
!!! Mode: 
!!! Encoder: DJB
**kern
*staff1
*I"Piano
=1-
*clefG2
*k[f#c#]
*D:
*M6/8
8d/L
8f#/
8a/J
4.a/
=2
8g\L
8b\
8dd\J
4.dd\
=3
8cc#\L
8b\
8a\J
8g/L
8f#/
8e/J
=4
8d/L
8e/
8f#/J
4.e/
=5
8d/L
8f#/
8a/J
4.a/
=6
8g#/L
8a/
8b/J
4e/
8dd\
=7
8cc#\L
8b\
8a\J
8b/L
8f#/
8g#/J
=8
4.a/
8r
4r
=9
!!linebreak:original
8g#/L
8a/
8b/J
4.e/
=10
8dd\L
8cc#\
8b\J
4cc#\
8a/
=11
8g#/L
8a/
8b/J
4.e/
=12
8dd\L
8cc#\
8b\J
4cc#\
8a/
=13
8g#/L
8a/
8b/J
4e/
8dd\
=14
4.cc#\
4.a/
=15
2.g/
=16
8f#/L
8a/
8f#/J
4.d/
=17
!!linebreak:original
8b/L
8g/
8b/J
4.dd\
=18
8cc#\L
8dd\
8ee\J
8a\L
8b\
8cc#\J
=19
2.dd\
==
*-
